ui/StatusQ/src/assets/img/icons/tiny/not-secure.svg

<svg fill="none" height="17" viewBox="0 0 16 17" width="16" xmlns="http://www.w3.org/2000/svg"><path clip-rule="evenodd" d="m8 3.5c-1.59302 0-2.87085 1.33423-2.99072 3h1.39013c.10889-.92371.79834-1.61536 1.60059-1.61536.87476 0 1.61523.82276 1.61523 1.87183v1.74353h-2.61523-.61548-1.38452-.5c-.82837 0-1.5.67163-1.5 1.5v3c0 .8284.67163 1.5 1.5 1.5h7c.8284 0 1.5-.6716 1.5-1.5v-3c0-.82837-.6716-1.5-1.5-1.5h-.5v-1.74353c0-1.7832-1.32593-3.25647-3-3.25647z" fill="#000" fill-rule="evenodd"/></svg>

<svg width="16" height="17" viewBox="0 0 16 17" fill="none" xmlns="http://www.w3.org/2000/svg">
<path fill-rule="evenodd" clip-rule="evenodd" d="M8 3.5C6.40698 3.5 5.12915 4.83423 5.00928 6.5H6.39941C6.5083 5.57629 7.19775 4.88464 8 4.88464C8.87476 4.88464 9.61523 5.7074 9.61523 6.75647V8.5H7H6.38452H5H4.5C3.67163 8.5 3 9.17163 3 10V13C3 13.8284 3.67163 14.5 4.5 14.5H11.5C12.3284 14.5 13 13.8284 13 13V10C13 9.17163 12.3284 8.5 11.5 8.5H11V6.75647C11 4.97327 9.67407 3.5 8 3.5Z" fill="black"/>
</svg>
